X:1
T:Melton Mowbray
T:William Henry Monk, 1889
T:Melton Mowbray
T:Public Domain
C:William Henry Monk, 1889
Z:Public Domain
%%score ( 1 2 ) ( 3 4 )
L:1/8
M:3/2
K:D
V:1 treble 
V:2 treble 
V:3 bass 
V:4 bass 
V:1
 D4 | [DF]2 [EA]2 [DG]2 [DF]2 [DB]2 [DA]2 | [DA]4 [DG]4 [DF]4 | [DB]6 D2 [B,D]2 E2 | [CF]8 [DA]4 | %5
 [DA]2 [DG]2 [DB]2 [CA]2 [Dd]2 A2 | [^GB]4 A4 [Ad]4 | [Ac]6 E2 [EF]2 [E^G]2 | %8
 (D4 C8)"^Sop. & Ten. in 8ves" | A8 B4 | c12 |"^Harmony" [Ad]4 [Ad]4 [Ac]4 | [Ac]6 [GB]2 [DA]2 D2 | %13
 [DF]4 [CE]4 [EA]4 | [D^G]6 [DB]2 [Dd]2 [Ed]2 | ([Fd]4 [Ec]4) A4 | [Ad]8 [Ac]4 | %17
 [Ac]6 [GB]2 [DA]2 D2 | [DF]4 [CE]4 [EA]4 | (F2 G2 A2) [FA]2 [GB]2 [Gc]2 | (G4 F4) |] %21
V:2
 D4 | x12 | x12 | x6 D2 E2 x2 | x12 | x10 A2 | x4 A4 x4 | x6 E2 x4 | A12 | x12 | x12 | x12 | %12
 x10 D2 | x12 | x12 | x8 A4 | x12 | x10 D2 | x12 | D6 x6 | d8 |] %21
V:3
 [D,F,]4 | [D,A,]2 [C,A,]2 [B,,B,]2 [D,A,]2 [G,,G,]2 [A,,F,]2 | [B,,F,]4 [B,,G,]4 [D,A,]4 | %3
 [G,B,]6 [G,B,]2 [G,B,]2 [G,B,]2 | (B,4 ^A,4) [F,=A,]4 | %5
 [G,B,]2 [G,B,]2 [E,G,]2 [E,G,]2 [F,A,]2 [F,D]2 | [E,D]4 [F,C]4 [=F,D]4 | %7
 [E,E]6 [E,C]2 [E,C]2 [E,B,]2 | [A,,A,]12 | A,8 [^G,B,]4 | [G,A,C]12 | [F,D]4 [F,D]4 [F,D]4 | %12
 [G,D]6 [G,D]2 [F,D]2 [B,,^G,]2 | [A,,A,]4 [A,,A,]4 [C,E,]4 | %14
 [B,,E,]6 [B,,E,]2 [B,,F,]2 [B,,^G,]2 | [A,,A,]8 [G,C]4 | [F,D]8 [F,D]4 | %17
 [G,D]6 [G,D]2 [F,D]2 [B,,^G,]2 | [A,,A,]4 [A,,A,]4 [C,A,]4 | (D,2 E,2 F,2) [D,D]2 [G,D]2 A,2 | %20
 [D,A,]8 |] %21
V:4
 x4 | x12 | x12 | x12 | F,8 x4 | x12 | x12 | x12 | x12 | x12 | x12 | x12 | x12 | x12 | x12 | x12 | %16
 x12 | x12 | x12 | A,6 x2 A,2 x2 | x8 |] %21

